src/icons/solid/symbols/checklist.svg

<svg width="24" height="24" viewBox="0 0 24 24" fill="none" xmlns="http://www.w3.org/2000/svg">
<g clip-path="url(#clip0_4787_814)">
<path fill-rule="evenodd" clip-rule="evenodd" d="M6.71973 11.7021C9.87962 11.7021 12.4403 14.2299 12.4404 17.3506C12.4404 20.4714 9.87973 23 6.71973 23C3.55985 22.9998 1 20.4713 1 17.3506C1.00017 14.23 3.55996 11.7023 6.71973 11.7021ZM9.69043 15.1484C9.38043 14.9114 8.93043 14.9711 8.69043 15.2871L5.92969 18.9307L4.5 17.5185C4.23008 17.262 3.80025 17.262 3.53027 17.5185C3.24027 17.7852 3.22023 18.2302 3.49023 18.5166L4.91992 19.9287C4.96991 19.9781 5.02033 20.0171 5.07031 20.0566C5.70031 20.5306 6.60033 20.4024 7.07031 19.7803L9.83008 16.1357C10.0698 15.8297 10.0001 15.3854 9.69043 15.1484Z" fill="#3C3B44"/>
<path d="M21.3301 2.6455C22.25 2.65547 23 3.38638 23 4.29492V21.2422C22.9999 22.1507 22.25 22.8915 21.3301 22.8916H11.1504C11.6702 22.4868 12.1299 22.0126 12.5098 21.4795H21.3301C21.46 21.4794 21.5702 21.3705 21.5703 21.2422V4.29492C21.5703 4.1827 21.4859 4.08518 21.3779 4.06249L21.3301 4.05761H20.3799V2.6455H21.3301Z" fill="#3C3B44"/>
<path d="M18.9502 18.1807C19.3401 18.1808 19.6602 18.4968 19.6602 18.8818C19.6601 19.2668 19.34 19.5828 18.9502 19.583H15.6104C15.2204 19.583 14.9005 19.2669 14.9004 18.8818C14.9004 18.4967 15.2204 18.1807 15.6104 18.1807H18.9502Z" fill="#3C3B44"/>
<path d="M18.9502 14.8818C19.3401 14.882 19.6601 15.1979 19.6602 15.583C19.6602 15.9681 19.3401 16.284 18.9502 16.2842H15.6104C15.2204 16.2842 14.9004 15.9682 14.9004 15.583C14.9004 15.1978 15.2204 14.8818 15.6104 14.8818H18.9502Z" fill="#3C3B44"/>
<path d="M18.9502 11.583C19.34 11.5831 19.66 11.8992 19.6602 12.2842C19.6602 12.6693 19.3401 12.9852 18.9502 12.9853H13.71C13.32 12.9853 13 12.6693 13 12.2842C13.0001 11.8991 13.3201 11.583 13.71 11.583H18.9502Z" fill="#3C3B44"/>
<path d="M9.88965 4.05761H8.94043C8.81043 4.05761 8.7002 4.16653 8.7002 4.29492V10.5664C8.23036 10.4282 7.75034 10.3491 7.27051 10.3096V4.29492C7.27051 3.38632 8.02043 2.6455 8.94043 2.6455H9.88965V4.05761Z" fill="#3C3B44"/>
<path d="M18.9502 8.29492C19.34 8.2951 19.6602 8.61103 19.6602 8.99609C19.6599 9.38098 19.3399 9.69708 18.9502 9.69726H11.3203C10.9304 9.69726 10.6106 9.38108 10.6104 8.99609C10.6104 8.61092 10.9303 8.29492 11.3203 8.29492H18.9502Z" fill="#3C3B44"/>
<path d="M14.1396 1.27246C15.0496 0.729272 16.2198 1.02619 16.7598 1.91503C16.9298 2.22099 17.24 2.40812 17.5898 2.4082H18.46C18.72 2.41807 18.9404 2.62603 18.9404 2.88281V4.76855C18.9404 5.0352 18.72 5.24316 18.46 5.24316H11.79C11.52 5.24315 11.3105 5.02532 11.3105 4.76855V2.88281C11.3105 2.61616 11.53 2.40821 11.79 2.4082H12.6602C13.01 2.39829 13.3202 2.21113 13.4902 1.91503C13.6502 1.65833 13.8698 1.43047 14.1396 1.27246Z" fill="#3C3B44"/>
</g>
<defs>
<clipPath id="clip0_4787_814">
<rect width="24" height="24" fill="white"/>
</clipPath>
</defs>
</svg>

<svg xmlns="http://www.w3.org/2000/svg" width="24" height="24" fill="none" viewBox="0 0 24 24"><g clip-path="url(#a)"><path fill="currentColor" d="M6.72 11.702c3.16 0 5.72 2.528 5.72 5.649S9.88 23 6.72 23 1 20.471 1 17.35c0-3.12 2.56-5.648 5.72-5.648m14.61-9.056c.92.01 1.67.74 1.67 1.649v16.947c0 .909-.75 1.65-1.67 1.65H11.15c.52-.405.98-.88 1.36-1.412h8.82c.13 0 .24-.11.24-.238V4.295a.24.24 0 0 0-.24-.237h-.95V2.646zM9.69 15.148a.714.714 0 0 0-1 .14L5.93 18.93 4.5 17.519a.707.707 0 0 0-.97 0 .7.7 0 0 0-.04.998l1.43 1.412c.05.05.1.088.15.128.63.474 1.53.345 2-.277l2.76-3.644a.7.7 0 0 0-.14-.988m9.26 3.033c.39 0 .71.316.71.7 0 .386-.32.702-.71.702h-3.34a.71.71 0 0 1-.71-.701c0-.385.32-.701.71-.701zm0-3.3c.39.001.71.317.71.702s-.32.7-.71.701h-3.34a.71.71 0 0 1-.71-.701c0-.385.32-.701.71-.701zm0-3.297c.39 0 .71.316.71.701s-.32.701-.71.701h-5.24a.71.71 0 0 1-.709-.7c0-.386.32-.702.71-.702zM9.89 4.058h-.95c-.13 0-.24.109-.24.237v6.271a7 7 0 0 0-1.43-.256V4.295c0-.909.75-1.65 1.67-1.65h.95zm9.06 4.237c.39 0 .71.316.71.701s-.32.701-.71.701h-7.63a.71.71 0 0 1-.71-.7c0-.386.32-.702.71-.702zm-4.81-7.023a1.92 1.92 0 0 1 2.62.643c.17.306.48.493.83.493h.87c.26.01.48.218.48.475v1.886c0 .266-.22.474-.48.474h-6.67a.477.477 0 0 1-.48-.474V2.883c0-.267.22-.475.48-.475h.87c.35-.01.66-.197.83-.493.16-.257.38-.485.65-.643"/></g><defs><clipPath id="a"><path fill="currentColor" d="M0 0h24v24H0z"/></clipPath></defs></svg>
